public/logos/2L.svg

<?xml version="1.0" encoding="UTF-8"?>
<svg xmlns="http://www.w3.org/2000/svg" xmlns:xlink="http://www.w3.org/1999/xlink" width="176pt" height="25.52pt" viewBox="0 0 176 25.52" version="1.1">
<defs>
<clipPath id="clip1">
  <path d="M 0 0 L 151 0 L 151 25.519531 L 0 25.519531 Z M 0 0 "/>
</clipPath>
<clipPath id="clip2">
  <path d="M 157 6 L 176 6 L 176 25.519531 L 157 25.519531 Z M 157 6 "/>
</clipPath>
</defs>
<g id="surface1">
<g clip-path="url(#clip1)" clip-rule="nonzero">
<path style=" stroke:none;fill-rule:nonzero;fill:rgb(45.735168%,43.901062%,45.61615%);fill-opacity:1;" d="M 17.347656 11.742188 C 17.742188 11.742188 18.078125 11.785156 18.34375 11.878906 C 19.011719 12.113281 19.265625 12.648438 19.027344 13.546875 C 19.023438 13.546875 15.664062 25.519531 15.664062 25.519531 L 21.371094 25.519531 L 24.816406 13.183594 C 25.34375 11.296875 25.191406 9.867188 24.378906 8.863281 C 23.480469 7.75 21.378906 7.066406 18.933594 7.066406 L 14.113281 7.066406 C 12.972656 7.066406 11.671875 7.308594 10.574219 8.019531 L 10.339844 8.195312 L 10.308594 8.183594 L 10.386719 7.9375 L 12.59375 0 L 7.175781 0 L 0 25.519531 L 5.683594 25.519531 L 8.84375 14.214844 C 9.167969 13.085938 9.984375 12.238281 11.15625 11.898438 C 11.421875 11.820312 11.613281 11.769531 11.929688 11.746094 C 11.929688 11.746094 13.148438 11.660156 14.769531 11.660156 C 15.667969 11.65625 17.347656 11.742188 17.347656 11.742188 M 27.949219 12.984375 C 27.949219 12.992188 26.128906 19.59375 26.128906 19.59375 C 25.660156 21.355469 25.738281 22.722656 26.484375 23.71875 C 27.382812 24.914062 29.175781 25.519531 31.820312 25.519531 L 44.644531 25.519531 L 45.953125 21.019531 L 33.085938 21.023438 C 32.539062 21.023438 32.121094 20.855469 31.90625 20.5625 C 31.792969 20.414062 31.738281 20.230469 31.738281 20.023438 C 31.738281 19.882812 31.765625 19.730469 31.8125 19.574219 C 31.816406 19.566406 32.066406 18.699219 32.191406 18.257812 L 47.230469 18.257812 L 48.757812 12.835938 C 48.929688 12.203125 49.015625 11.617188 49.015625 11.078125 C 49.015625 10.21875 48.789062 9.488281 48.347656 8.898438 C 47.425781 7.6875 45.644531 7.089844 42.894531 7.066406 L 37.105469 7.066406 C 32.144531 7.066406 29.066406 9.054688 27.949219 12.984375 M 33.777344 12.628906 C 33.953125 12.058594 34.460938 11.40625 35.972656 11.40625 L 38.695312 11.351562 L 41.835938 11.40625 C 42.445312 11.40625 42.933594 11.574219 43.144531 11.851562 C 43.222656 11.960938 43.265625 12.089844 43.265625 12.238281 C 43.265625 12.328125 43.25 12.429688 43.21875 12.535156 L 42.707031 14.351562 L 33.289062 14.351562 Z M 55.503906 0 L 48.324219 25.519531 L 54.425781 25.519531 L 61.605469 0 L 55.503906 0 M 76.46875 7.171875 C 76.46875 7.171875 70.125 16.707031 69.175781 18.136719 C 69.171875 18.148438 69.117188 18.308594 69.117188 18.308594 L 69.105469 18.304688 L 69.121094 18.140625 C 68.964844 16.476562 68.109375 7.171875 68.109375 7.171875 L 61.59375 7.171875 L 64.09375 25.519531 L 70.355469 25.519531 L 84.042969 7.171875 L 76.46875 7.171875 M 83.238281 12.984375 C 83.238281 12.992188 81.417969 19.59375 81.417969 19.59375 C 80.953125 21.355469 81.027344 22.722656 81.773438 23.71875 C 82.667969 24.914062 84.464844 25.519531 87.109375 25.519531 L 99.929688 25.519531 L 101.183594 21.019531 L 88.371094 21.023438 C 87.828125 21.023438 87.40625 20.855469 87.195312 20.5625 C 87.085938 20.414062 87.027344 20.230469 87.027344 20.023438 C 87.027344 19.882812 87.054688 19.730469 87.101562 19.574219 C 87.101562 19.566406 87.351562 18.699219 87.480469 18.257812 L 102.511719 18.257812 L 104.039062 12.835938 C 104.214844 12.203125 104.300781 11.617188 104.300781 11.078125 C 104.300781 10.21875 104.074219 9.488281 103.628906 8.898438 C 102.710938 7.6875 100.925781 7.089844 98.179688 7.066406 L 92.390625 7.066406 C 87.4375 7.066406 84.355469 9.054688 83.238281 12.984375 M 89.0625 12.628906 C 89.242188 12.058594 89.746094 11.40625 91.253906 11.40625 L 94.121094 11.351562 L 97.117188 11.40625 C 97.722656 11.40625 98.214844 11.574219 98.425781 11.851562 C 98.507812 11.960938 98.546875 12.089844 98.546875 12.238281 C 98.546875 12.328125 98.53125 12.429688 98.503906 12.535156 L 97.988281 14.351562 L 88.578125 14.351562 Z M 110.867188 0 L 105.59375 18.800781 C 105.050781 20.773438 105.203125 22.335938 106.054688 23.453125 C 107.109375 24.84375 109.164062 25.519531 112.335938 25.519531 L 115.085938 25.519531 L 116.347656 20.917969 L 115.863281 20.925781 C 114.03125 20.996094 111.933594 21.175781 111.367188 20.433594 C 111.160156 20.164062 111.125 19.839844 111.261719 19.355469 L 113.375 11.742188 L 118.753906 11.742188 L 120.070312 7.0625 L 114.6875 7.0625 L 116.648438 0 L 110.867188 0 M 123.585938 7.027344 L 118.390625 25.519531 L 124.175781 25.519531 L 129.375 7.027344 L 123.585938 7.027344 M 125.554688 0.00390625 L 124.285156 4.496094 L 130.066406 4.496094 L 131.332031 0.00390625 Z M 141.691406 7.0625 C 135.933594 7.0625 132.472656 8.199219 131.113281 13.085938 C 131.113281 13.082031 130.78125 14.03125 130.488281 15.082031 C 130.023438 16.714844 129.515625 18.722656 129.515625 18.722656 C 129 20.621094 129.050781 22.121094 129.894531 23.261719 C 131.011719 24.761719 133.296875 25.519531 136.6875 25.519531 L 145.757812 25.519531 L 147.097656 20.851562 L 137.722656 20.84375 C 136.863281 20.84375 136.214844 20.617188 135.90625 20.203125 C 135.65625 19.867188 135.65625 19.398438 135.832031 18.8125 C 135.832031 18.8125 136.113281 17.429688 136.476562 16.121094 C 136.804688 14.9375 137.21875 13.8125 137.21875 13.8125 C 137.691406 12.34375 138.953125 11.65625 140.652344 11.65625 L 144.066406 11.601562 L 149.523438 11.65625 L 150.796875 7.0625 L 141.691406 7.0625 "/>
</g>
<g clip-path="url(#clip2)" clip-rule="nonzero">
<path style=" stroke:none;fill-rule:nonzero;fill:rgb(93.000793%,13.562012%,13.845825%);fill-opacity:1;" d="M 164.054688 10.277344 L 165.324219 10.367188 L 169.023438 15.539062 C 169.191406 15.539062 172.539062 15.539062 172.539062 15.539062 L 173.410156 15.613281 C 173.898438 15.6875 174.644531 16.21875 174.671875 16.242188 L 174.855469 16.375 L 174.671875 16.507812 C 174.644531 16.535156 173.898438 17.074219 173.410156 17.152344 L 172.539062 17.226562 L 169.023438 17.226562 C 168.929688 17.359375 165.324219 22.398438 165.324219 22.398438 L 164.054688 22.488281 C 164.054688 22.488281 165.683594 17.703125 165.816406 17.3125 C 165.183594 17.289062 164.019531 17.210938 164.011719 17.210938 C 164.011719 17.210938 161.570312 16.96875 161.417969 16.957031 C 161.316406 17.0625 159.972656 18.460938 159.972656 18.460938 L 158.976562 18.359375 C 158.976562 18.359375 159.691406 16.46875 159.734375 16.359375 C 159.691406 16.25 158.976562 14.40625 158.976562 14.40625 L 159.972656 14.300781 C 159.972656 14.300781 161.332031 15.714844 161.433594 15.824219 C 161.828125 15.777344 164.011719 15.539062 164.027344 15.539062 C 164.027344 15.539062 165.441406 15.464844 165.816406 15.449219 C 165.683594 15.0625 164.132812 10.515625 164.132812 10.515625 Z M 160.609375 6.949219 C 158.90625 6.949219 157.511719 8.324219 157.511719 10.023438 L 157.511719 22.339844 C 157.511719 24.035156 158.90625 25.425781 160.609375 25.425781 L 172.917969 25.425781 C 174.625 25.425781 176 24.035156 176 22.339844 L 176 10.023438 C 176 8.324219 174.625 6.949219 172.917969 6.949219 L 160.609375 6.949219 "/>
</g>
</g>
</svg>

<svg xmlns="http://www.w3.org/2000/svg" width="176pt" height="34.027" viewBox="0 0 176 25.52"><defs><clipPath id="a"><path d="M0 0h151v25.52H0Zm0 0"/></clipPath><clipPath id="b"><path d="M157 6h19v19.52h-19Zm0 0"/></clipPath></defs><g clip-path="url(#a)"><path d="M17.348 11.742c.394 0 .73.043.996.137.668.234.922.77.683 1.668-.004 0-3.363 11.973-3.363 11.973h5.707l3.445-12.336c.528-1.887.375-3.317-.437-4.32-.899-1.114-3-1.798-5.445-1.798h-4.82c-1.141 0-2.442.243-3.54.954l-.234.175-.031-.011.078-.246L12.594 0H7.176L0 25.52h5.684l3.16-11.305a3.3 3.3 0 0 1 2.312-2.317 3.3 3.3 0 0 1 .774-.152s1.218-.086 2.84-.086c.898-.004 2.578.082 2.578.082m10.601 1.242c0 .008-1.82 6.61-1.82 6.61-.469 1.761-.39 3.129.355 4.125.899 1.195 2.692 1.8 5.336 1.8h12.825l1.308-4.5-12.867.004c-.547 0-.965-.168-1.18-.46a.87.87 0 0 1-.168-.54c0-.14.028-.293.075-.449.003-.008.253-.875.378-1.316h15.04l1.527-5.422a6.7 6.7 0 0 0 .258-1.758c0-.86-.227-1.59-.668-2.18-.922-1.21-2.703-1.808-5.453-1.832h-5.79c-4.96 0-8.039 1.989-9.156 5.918m5.828-.355c.176-.57.684-1.223 2.196-1.223l2.722-.054 3.14.054c.61 0 1.099.168 1.31.446a.65.65 0 0 1 .12.386c0 .09-.015.192-.046.297l-.512 1.817h-9.418ZM55.504 0l-7.18 25.52h6.102L61.606 0zm20.965 7.172s-6.344 9.535-7.293 10.965l-.059.172-.012-.004.016-.164c-.156-1.664-1.012-10.97-1.012-10.97h-6.515l2.5 18.349h6.261L84.043 7.172zm6.77 5.812c0 .008-1.821 6.61-1.821 6.61-.465 1.761-.39 3.129.355 4.125.895 1.195 2.692 1.8 5.336 1.8h12.82l1.255-4.5-12.813.004c-.543 0-.965-.168-1.176-.46a.9.9 0 0 1-.168-.54c0-.14.028-.293.075-.449 0-.008.25-.875.378-1.316h15.032l1.527-5.422a6.6 6.6 0 0 0 .262-1.758c0-.86-.227-1.59-.672-2.18-.918-1.21-2.703-1.808-5.45-1.832h-5.788c-4.954 0-8.036 1.989-9.153 5.918m5.825-.355c.18-.57.683-1.223 2.19-1.223l2.868-.054 2.996.054c.606 0 1.098.168 1.309.446q.121.164.12.386c0 .09-.015.192-.042.297l-.516 1.817h-9.41ZM110.867 0l-5.273 18.8c-.543 1.973-.39 3.536.46 4.653 1.055 1.39 3.11 2.067 6.282 2.067h2.75l1.262-4.602-.485.008c-1.832.07-3.93.25-4.496-.492-.207-.27-.242-.594-.105-1.079l2.113-7.613h5.379l1.316-4.68h-5.382L116.648 0zm12.718 7.027L118.39 25.52h5.785l5.199-18.493zm1.97-7.023-1.27 4.492h5.781l1.266-4.492Zm16.136 7.059c-5.757 0-9.218 1.136-10.578 6.023 0-.004-.332.945-.625 1.996-.465 1.633-.972 3.64-.972 3.64-.516 1.9-.465 3.4.379 4.54 1.117 1.5 3.402 2.258 6.792 2.258h9.07l1.34-4.668-9.374-.008c-.86 0-1.508-.227-1.817-.64-.25-.337-.25-.806-.074-1.392 0 0 .281-1.382.645-2.69.328-1.184.742-2.31.742-2.31.472-1.468 1.734-2.156 3.433-2.156l3.414-.054 5.457.054 1.274-4.594z" style="stroke:none;fill-rule:nonzero;fill:#757074;fill-opacity:1"/></g><g clip-path="url(#b)"><path d="m164.055 10.277 1.27.09 3.698 5.172h3.516l.871.074c.488.075 1.235.606 1.262.63l.183.132-.183.133c-.027.027-.774.566-1.262.644l-.87.075h-3.517c-.093.132-3.699 5.171-3.699 5.171l-1.27.09 1.762-5.175c-.632-.024-1.796-.102-1.804-.102 0 0-2.442-.242-2.594-.254l-1.445 1.504-.996-.102s.714-1.89.757-2l-.757-1.953.996-.105s1.359 1.414 1.46 1.523c.395-.047 2.579-.285 2.594-.285 0 0 1.414-.074 1.79-.09-.133-.386-1.684-4.933-1.684-4.933Zm-3.446-3.328c-1.703 0-3.097 1.375-3.097 3.074V22.34c0 1.695 1.394 3.086 3.097 3.086h12.309A3.087 3.087 0 0 0 176 22.34V10.023c0-1.699-1.375-3.074-3.082-3.074z" style="stroke:none;fill-rule:nonzero;fill:#ed2323;fill-opacity:1"/></g></svg>
